X: 2591
T: Ballyvourney, The
R: polka
M: 2/4
K: Edorian
z|EF/G/ FE|FD FA|EF/G/ FE|F2 FA|
EF/G/ FE|FD FA|BA B/c/d|e2 e:|
z/ c/|dA FA|DA FA|cB GB|A2 AB/c/|
dA FA|DA FA|BA B/c/d|e2 e:|

